X:46
T: Azért hogy az ingem fótos...
K: F
M: 4/4
L: 1/4
d/g/f/g/ a<f | g2 f2 | 
a/g/f/g/ a<g | d2 d2 | 
c d/e/ f<g | c2 B2 | 
d/c/B/A/ G<F | G2 G2 | 

